X:65
T:Cooley's
R:reel
C:Joe Mills, Galway (1938)
M:C|
K:Edor
EBBA (3(BcB) EB|~B2AB dBAG|(3(FED) AD BDAD|(3(FED) FA dAFD|
EBBA (3(BcB) EB|~B2AB defg|afef dBAF|[1 DE (3(FED) E2ED:|[2 DE (3(FED) E2gf|]
|:eB~B2 eBgB|eB~B2 gedB|~A2FA DAFA|~A2FA defg|
eB~B2 eBgB|eB~B2 defg|afef dBAF|[1 DE (3(FED) E2gf:|[2 DE (3(FED) E2ED|]

